X: 241
T: Mrs. Crowley's
R: polka
M: 2/4
L: 1/8
K: Gmaj
DG EG/E/ | DG EG/D/ | DG AG/A/ | BA A2 |
DG EG/E/ | DG EG/D/ | DG AG/A/ | BG G2 :|
dB gB | dB gB | dB gB | cA AB/c/ |
dB gB | dB gB | GB A>B | AG G2 :|


